app/assets/icon/note_logo.svg

<svg width="18" height="18" viewBox="0 0 18 18" fill="none" xmlns="http://www.w3.org/2000/svg">
<path id="noteIcon" d="M2.58261 15.7176H15.437V2.28242H6.14348C6.08478 2.28242 5.96739 2.33429 5.9087 2.38617C4.81304 3.42363 3.73696 4.47839 2.66087 5.51585C2.60217 5.56772 2.56304 5.67147 2.56304 5.77522L2.58261 15.7176ZM16.7087 0C17.413 0 18 0.518732 18 1.14121V16.8588C18 17.4813 17.4326 18 16.7087 18H1.2913C0.586956 18 0 17.4813 0 16.8588C0 16.7378 0 5.79251 0 5.36023C0 4.91066 0.156521 4.54755 0.508695 4.21902L4.38261 0.48415C4.71522 0.155619 5.10652 0.0172908 5.59565 0.0172908H16.7087V0ZM5.14565 7.91931C4.57826 7.91931 4.1087 7.50432 4.1087 7.00288C4.1087 6.50144 4.57826 6.08645 5.14565 6.08645H6.88696V4.53026C6.88696 4.02882 7.35652 3.61383 7.92391 3.61383C8.4913 3.61383 8.96087 4.02882 8.96087 4.53026V6.98559C8.96087 7.48703 8.4913 7.90202 7.92391 7.90202H5.14565V7.91931Z" fill="white"/>
</svg>

<svg width="18" height="18" xmlns="http://www.w3.org/2000/svg"><path d="M2.583 15.718h12.854V2.282H6.143a.47.47 0 0 0-.234.104C4.813 3.424 3.737 4.478 2.66 5.516c-.059.052-.098.155-.098.26l.02 9.942ZM16.709 0C17.413 0 18 .519 18 1.141V16.86c0 .62-.567 1.14-1.291 1.14H1.29C.587 18 0 17.481 0 16.859V5.36c0-.45.157-.812.509-1.141L4.383.484c.332-.328.724-.467 1.213-.467h11.113V0ZM5.146 7.92c-.568 0-1.037-.416-1.037-.917 0-.502.47-.917 1.037-.917h1.741V4.53c0-.501.47-.916 1.037-.916s1.037.415 1.037.916v2.456c0 .501-.47.916-1.037.916H5.146v.017Z"/></svg>
